X:21017
T:BRYAN O'LYNN 
B:DMI.0221
Z:Nordberg/Black
R:jig
%Q:1/4=160
M:6/8
L:1/8
K:Am
B|cAd cAG|EGE GAB|cAd cAG|EAA A2B|
cAd cAG|EGE GAB|cde fed|cAA A2:|
^f|gag ged|cAB cde|eaa age|edd d2^f|
gag ged|cAB cde|fed cAG|EAA A2:|


%%%

